X:851
T:Cap And Bell, The
T:Out on the Road
R:reel
C:Josephine Keegan
D:Across the Pond
D:Kevin Crawford: In Good Company
D:Dervish: Midsummer's Night
Z:id:hn-reel-851
M:C|
L:1/8
K:D
dF~F2 A2FA | dfec dAFA | BG~G2 Bcde | f2ef dcBc |
dF~F2 A2FA | dfec dcBA | ~G3A Bdeg |1 fdec Addc :|2 fdec Adde ||
|: faa^g afdf | bagf gfed | Be~e2 gfed | Beba agfe |
faa^g afde | f2ef dcBA | ~G3A Bdeg |1 fdec Adde :|2 fdec Addc ||

